X:1
T:Choix de chansons. Tome 1
T:Les Amours de Glycère et d'Alexis
T:Les Amours de Glycère et d'Alexis
T:Jean Benjamin de La Borde
C:Jean Benjamin de La Borde
Z:Jean Benjamin de La Borde
%%score 1 { ( 2 3 ) | ( 4 5 ) }
L:1/8
Q:1/4=155
M:2/2
K:Ab
V:1 treble nm="Ténor" snm="T."
V:2 treble nm="Clavecin" snm="Cla."
V:3 treble 
V:4 bass 
V:5 bass 
V:1
|:"^Larghetto" c3 d c2 B2 |{/B} A2 G2 B4 | A2 G2{/G} F2 =E2 | (F3 A) G2 z2 | c3 d c2 B2 | %5
w: A- le- xis de-|puis deux ans|A- do- rait Gly-|cè- * re|il ca- chait de-|
w: Il frap- pa tout|dou- ce- ment,|Elle ou- vrit la|por- * te;|Ah! dit il, un|
w: Vous ne pou- vez|pas en- trer,|Lui ré- pon- dit|el- * le;|Vous me fai- tes|
w: Eh bien, je vous|o- bé- is,|O vous que j'a-|do- * re;|Si vous ai- mez|
w: La peur fit qu'el-|le ju- ra|D'al- ler sur l'her-|bet- * te;|Il prit sa main,|
{/B} A2 G2 B4 | A2 G G F3 =E |{/G} F4 A2{/A} G F | A2 A2 B3 c |{/B} A2 G2 A2 A B | c2 =d2 =e3 f | %11
w: puis ce temps|Ses ten- dres sen- ti-|ments, Un jour il|a- per- çut la|mè- re qui dans la|plai- ne tra- vail-|
w: seul mo- ment;|É- cou- tez vo- tre a-|mant. De la ten-|dres- se la plus|for- te Lais- sez moi|vous mon- trer l'ar-|
w: fris- son- ner,|On peut nous é- cou-|ter? Non, non, je|ne suis point cru-|el- le, Par tant d'a-|mour vous me char-|
w: A- lex- is,|Tous ses maux sont fi-|nis. Mais ju- rez|moi que dès l'au-|ro- re, En me- nant|paî- tre vos mou-|
w: la bai- sa,|Et puis il s'en al-|la. Le len- de-|main la Ber- ge-|ret- te Vou- lu ac-|com- plir son ser-|
{/!fermata!f} !fermata!g4 c2 f a |{/a} g2{/f} =e2 f2 a2 |{/f} =e2 e2 d2 B d | (cf) (dB) A2{/A} G2 | %15
w: lait il vole au|pieds de sa Ber-|gè- re pour lui con-|ter * ce * qu'il souf-|
w: deur, Et dans mon|â- me pres- que|mor- te Fai- tes re-|naî- * tre * le bon-|
w: mez; Mais vo- yez|ma crain- te mor-|tel- le, Et lais- sez|moi,- _ si * vous m'ai-|
w: tons, Vous me di-|rez cent fois en-|co- re Que pour tou-|jours _ nous * nous ai-|
w: ment; Mais on pré-|tend que la pau-|vret- te Per- dit beau-|coup _ en * s'ac- quit-|
{/G} A4 c2 f a |{/a} g2{/f} =e2 f2 a2 |{/f} =e2 e2 d2 B d | (c/f/=e/f/) (_e/d/c/B/) A2{/A} G2 | %19
w: frait il vole aux|pieds de sa Ber-|gè- re pour lui con-|ter- _ _ _ ce- _ _ _ qu'il souf-|
w: heur Et dans mon|â- me pres- que|mor- te fai- tes re-|naî- _ _ _ tre- _ _ _ le bon-|
w: mez. Mais vo- yez|ma crain- te mor-|tel- le, Et lais- sez|moi,- _ _ _ si- _ _ _ vous m'ai-|
w: mons. Vous me di-|rez cent fois en-|co- re Que pour tou-|jours- _ _ _ nous- _ _ _ nous ai-|
w: tant. Mais on pré-|tend que la pau-|vret- te Per- dit beau-|coup- _ _ _ en- _ _ _ s'ac- quit-|
 !stemless!F8 :| %20
w: frait.|
w: heur.|
w: mez.|
w: mons.|
w: tant.|
V:2
|: [cc']3 [dd'] [cc']2 [Bb]2 | [Aa]2 [Gg]2 [Bb]4 | [Aa]2 [Gg]2 [Ff]2 [=E=e]2 | [Ff]4 [G=e]2 z2 | %4
 [cf]3 [dg] [cf]2 [B=e]2 | [cf]2 [=EGB]2 [FA]4 | [FAc]2 [GBd]2 [FAc]2 [=EGB]2 | %7
 [FAc]4 z [Ac] [GB][FA] | z2 [Ac]2 [Bc]2 [Bc]2 | [Ac]2 [Gc]2 z [CF] [CF][C=E] | [CF]2 F2 =E3 F | %11
 !fermata!=E4 z c FA | z c =EG z c FA | [=EGc]4 z =E[I:staff +1] B,[I:staff -1]E | %14
 z [CF] z [DG] F2 [=EGB]2 | [FAc]4 z c FA | z c =EG z c FA | %17
 [=EGB]4 z =E[I:staff +1] B,[I:staff -1]E | z [CF] z [DG] F2 [=EGB]2 | !stemless![FAc]8 :| %20
V:3
|: x3 D x4 | x8 | x8 | x8 | A3 B A2 G2 | F2 x2 D4 | x8 | x4 F4 | F2 x2 =E2 C2 | F2 C2 x4 | x8 | %11
 x8 | x8 | x8 | x8 | x8 | x8 | x8 | x8 | x8 :| %20
V:4
|: [C,C]3 D, [C,C]2 [B,,B,]2 | [A,,A,]2 [G,,G,]2 [B,,B,]4 | [A,,A,]2 [G,,G,]2 [F,,F,]2 [=E,,=E,]2 | %3
 [F,,F,]4 [C,,C,]2 z2 | A,3 B, A,2 G,2 | F,2 [C,C]2 D,4 | C2 B,2 C2 C,2 | F,4 F,4 | %8
 F,2 z2 =E,2 C,2 | F,2 C,2 [F,,F,]3 [G,,G,] | [A,,A,]2 [A,,A,]2 [G,,G,]3 [F,,F,] | %11
 !fermata!C,4 C2 C,2 | B,2 G,2 A,2 F,2 | B,4 G,4 | A,2 B,2 C2 C,2 | F,4 C2 C,2 | B,2 G,2 A,2 F,2 | %17
 B,4 G,4 | A,2 B,2 C2 C,2 | !stemless![F,,F,]8 :| %20
V:5
|: x8 | x8 | x8 | x8 | x8 | x8 | x8 | x8 | x8 | x4 x A, A, x | x2 B,2 B,3 [A,C] | !fermata!G,4 x4 | %12
 x8 | x8 | x8 | x8 | x8 | x8 | x8 | x8 :| %20

